images/S Logo Start.svg

<?xml version="1.0" encoding="UTF-8"?>
<svg width="500px" height="500px" viewBox="0 0 500 500" version="1.1" xmlns="http://www.w3.org/2000/svg" xmlns:xlink="http://www.w3.org/1999/xlink">
    <title>S Logo Start</title>
    <g id="S-Logo-Start" stroke="none" stroke-width="1" fill="none" fill-rule="evenodd">
        <path d="M375.835231,-5.03064257e-12 L124.019994,-5.03064257e-12 C56.2830263,-5.03064257e-12 1.24311148,54.3625452 0.149086878,121.838798 L0.132489492,123.887504 L0.132489492,376.112496 C0.132489492,443.849463 54.4950347,498.889378 121.971288,499.983403 L124.019994,500 L375.835231,500 C443.572198,500 498.612113,445.637455 499.706138,378.161202 L499.722735,376.112496 L499.722735,123.887504 C499.722735,56.1505368 445.36019,1.11062199 377.883937,0.016597386 L375.835231,-5.03064257e-12 Z" id="Path" fill="#FF9300" fill-rule="nonzero"></path>
        <path d="M368.089119,434.753744 C389.895625,434.753744 406.438491,429.11413 417.717719,417.834903 C428.996946,406.555676 434.63656,390.012809 434.63656,368.206303 L434.612619,248.268361 L128.59532,208.266859 L128.59532,144.652017 C128.59532,138.786818 130.212009,134.23753 133.445388,131.004152 C136.678766,127.770773 141.228055,126.154084 147.093253,126.154084 L353.200538,126.154084 C365.532494,126.154084 371.698471,132.320061 371.698471,144.652017 L371.698471,189.131129 L434.612619,197.525828 L434.63656,131.793697 C434.63656,109.987191 428.996946,93.4443245 417.717719,82.1650971 C406.438491,70.8858698 389.895625,65.2462561 368.089119,65.2462561 L132.204673,65.2462561 C110.698946,65.2462561 94.231274,70.9234672 82.801657,82.2778894 C71.3720399,93.6323116 65.6572314,110.137581 65.6572314,131.793697 L65.6683539,253.563951 L371.698471,293.763402 L371.698471,355.347983 C371.698471,367.679939 365.532494,373.845916 353.200538,373.845916 L147.093253,373.845916 C134.761298,373.845916 128.59532,367.679939 128.59532,355.347983 L128.547316,312.261335 L65.6683539,304.116447 L65.6572314,368.206303 C65.6572314,389.862419 71.3720399,406.367688 82.801657,417.722111 C94.231274,429.076533 110.698946,434.753744 132.204673,434.753744 L368.089119,434.753744 Z" id="Path" fill="#FFFFFF" fill-rule="nonzero"></path>
    </g>
</svg>

<svg xmlns="http://www.w3.org/2000/svg" width="500" height="500" viewBox="0 0 500 500"><title>S Logo Start</title><g fill="none" fill-rule="nonzero"><path fill="#FF9300" d="M375.835 0H124.02C56.283 0 1.243 54.363.15 121.839l-.018 2.049v252.224c0 67.737 54.363 122.777 121.84 123.871l2.048.017h251.815c67.737 0 122.777-54.363 123.871-121.839l.017-2.049V123.888C499.723 56.15 445.36 1.11 377.883.017L375.836 0z"/><path fill="#FFF" d="M368.09 434.754c21.806 0 38.348-5.64 49.628-16.92 11.279-11.278 16.919-27.821 16.919-49.628l-.024-119.938-306.018-40.001v-63.615c0-5.865 1.617-10.414 4.85-13.648 3.234-3.233 7.783-4.85 13.648-4.85h206.108c12.331 0 18.497 6.166 18.497 18.498v44.48l62.915 8.394.024-65.732c0-21.807-5.64-38.35-16.92-49.629-11.279-11.28-27.821-16.919-49.628-16.919H132.205c-21.506 0-37.974 5.677-49.403 17.032-11.43 11.354-17.145 27.86-17.145 49.516l.011 121.77 306.03 40.2v61.584c0 12.332-6.166 18.498-18.497 18.498H147.093c-12.332 0-18.498-6.166-18.498-18.498l-.048-43.087-62.879-8.145-.01 64.09c0 21.656 5.714 38.162 17.144 49.516 11.43 11.355 27.897 17.032 49.403 17.032h235.884z"/></g></svg>
